!!!OTL: 1612. Sommerliedchen der Kinder in Schweidnitzer Gegend. / A.
!!!ARE: Europa, Mitteleuropa, Deutschland, Schweidnitz
!!!SCT: K1612
!!!TXL: @@NDS
!!!YEM: Copyright 1995, estate of Helmut Schaffrath.
**kern	**text
*clefG2	*
*M2/4	*
*k[f#]	*
*G:	*
{8g	Die
=1	=1
8dd	guld-
8dd	-ne
8dd	Schnur
8ee	gieht
=2	=2
8dd	um
8b	das
8g}	Haus,
{8g	Die
=3	=3
8dd	ſchiene
8dd	Frau
8dd	Wirthin
8ee	gieht
=4	=4
8dd	ein
8b	und
8g}	aus.
{8b	Sie
=5	=5
8dd	geht
8dd	wie
8dd	ei-
8ee	-ne
=6	=6
4dd	To-
8b}	-cke
{8b	in
=7	=7
8dd	ih-
8dd	-remſchwarʒbraunen
8dd	.
8ee	Ro-
=8	=8
4dd	-cke;
8b}	Des
{8g	Mur-
=9	=9
8dd	-gens,
8dd	wenn
8dd	ſie
8ee	fruh
=10	=10
8dd	uf-
8b	-ſtieht
8g}	und
{8g	in
=11	=11
8dd	die
8dd	lie-
8dd	-be
8ee	Ker-
=12	=12
8dd	-che
8b	gieht,
8g}	da
{8b	ſetʒt
=13	=13
16dd	ſie
16dd	ſich
8dd	nie-
16dd	-der
16dd	an
8ee	ih-
=14	=14
8dd	-ren
8b	Ort,
8g	.
8r}	an
=15	=15
{4b	ih-
8ee	-ren
8ee	Ort,
=16	=16
4dd	.
8r}	und
{8dd	hört
=17	=17
8cc	gar
8cc	flei-
8b	-ßig
8b	auf
=18	=18
8a	Got-
8a	-tes
8g}	Wort.
==	==
!!!AGN: Kinder -, Ansinge - Lied, Bettel - Reim
!!!ONB: ESAC (Essen Associative Code) Database: KINDER
!!!AMT: simple duple
!!!AIN: vox
!!!EED: Helmut Schaffrath
!!!EEV: 1.0
!!!GTL: XIV. Ansingelieder und Bettelreime der Jugend bei den Umzuegen an den Jahresfesten.
!!@@COMMENT:"Die erſten drei Reime ſtehen ſchon in "Schleſiſche Gedichte" von K. v. Holtei. 1855. Die ʒwei letʒten wurden im Jahr 1879 an Erk mitgetheilt; dabei waren 
!!auch die erſten (ſ. Liederhort III. 135)."
!!@@END:
!!!URL-scan: https://archive.org/details/DeutschesKinderliedUndKinderspiel/page/335/mode/1up
!!!ENC: Anna Maria Matuszewska
!!!EEV: 2024/02/09
*-	*-
